ES1T1/13/aimg/a10.svg

<svg clip-rule="evenodd" fill-rule="evenodd" viewBox="0 0 200 200" xmlns="http://www.w3.org/2000/svg"><g transform="matrix(4.16667 0 0 4.16667 -2076.19 -475.873)"><path d="m529.702 154.348c-1.553.455-2.776.682-3.67.682-5.639 0-8.459-2.637-8.459-7.911v-12.7h-2.703v-4.065h2.703v-4.065l6.504-.747v4.812h5.163v4.065h-5.163v11.844c0 2.959 1.208 4.438 3.625 4.438.557 0 1.223-.103 2-.308z" fill="none" stroke="#aae1fa" stroke-width="2"/><path d="m.367-.003c-.035.01-.062.015-.082.015-.125 0-.188-.058-.188-.176v-.282h-.06v-.09h.06v-.09l.145-.017v.107h.114v.09h-.114v.263c0 .066.027.099.08.099.013 0 .027-.002.045-.007z" fill="#fff" fill-rule="nonzero" transform="matrix(45 0 0 45 513.2 154.48)"/></g></svg>

<?xml version="1.0" encoding="UTF-8" standalone="no"?>
<!DOCTYPE svg PUBLIC "-//W3C//DTD SVG 1.1//EN" "http://www.w3.org/Graphics/SVG/1.1/DTD/svg11.dtd">
<svg width="100%" height="100%" viewBox="0 0 200 200" version="1.1" xmlns="http://www.w3.org/2000/svg" xmlns:xlink="http://www.w3.org/1999/xlink" xml:space="preserve" xmlns:serif="http://www.serif.com/" style="fill-rule:evenodd;clip-rule:evenodd;">
    <g transform="matrix(4.16667,0,0,4.16667,-2076.19,-475.873)">
        <path d="M529.702,154.348C528.149,154.803 526.926,155.03 526.032,155.03C520.393,155.03 517.573,152.393 517.573,147.119L517.573,134.419L514.87,134.419L514.87,130.354L517.573,130.354L517.573,126.289L524.077,125.542L524.077,130.354L529.24,130.354L529.24,134.419L524.077,134.419L524.077,146.263C524.077,149.222 525.285,150.701 527.702,150.701C528.259,150.701 528.925,150.598 529.702,150.393L529.702,154.348Z" style="fill:none;fill-rule:nonzero;stroke:rgb(170,225,250);stroke-width:2px;"/>
        <g transform="matrix(45,0,0,45,513.2,154.48)">
            <path d="M0.367,-0.003C0.332,0.007 0.305,0.012 0.285,0.012C0.16,0.012 0.097,-0.046 0.097,-0.164L0.097,-0.446L0.037,-0.446L0.037,-0.536L0.097,-0.536L0.097,-0.626L0.242,-0.643L0.242,-0.536L0.356,-0.536L0.356,-0.446L0.242,-0.446L0.242,-0.183C0.242,-0.117 0.269,-0.084 0.322,-0.084C0.335,-0.084 0.349,-0.086 0.367,-0.091L0.367,-0.003Z" style="fill:white;fill-rule:nonzero;"/>
        </g>
    </g>
</svg>
